X:2790
T:I'll gang nae mair to yon town. JMT037
O:england
M:4/4
L:1/8
Q:180
S:J,Moore,Tyneside,1841.(27b)
R:Reel
A:Northumbria
H:184
K:F
G|Fffc A2.F.c|A/-B/.c FA BGGf|  (a/g/f/e/) fc A2 .F.c| A/-B/.c GB AFF:|
c| AFcF dFcB| AF (d/c/B/A/) BGGc| AFcF dFcB|A/-B/.c GB AFFc|
AFcF dFcB| AF (d/c/B/A/) BGGe| fafd gbge| fdcB AFF|]


